X: 1
T: A Night At The Fair
M: 6/8
L: 1/8
R: jig
K: Gmaj
A|:B2A GED|EGG G2A|BGG DGG|BAA ABc|
B2A GED|EGG G2A|BeB dBA|1BGF G2A:|2BGF G||
|:Bd|egg eaa|egg ged|BGG dGG|BAA ABd|
egg eaa|egg ged|BeB dBA|BGF G:|
